!!!COM: Beethoven
!!!OTL: 6 Variationen uber "Nel cor piu non mi sento" von G. Paisiello
!!!Variation: Theme c
**function	**harm	**kern	**kern
*	*	*clefF4	*clefG2
*	*	*k[f#]	*k[f#]
*M6/8	*M6/8	*M6/8	*M6/8
*G:	*G:	*G:	*G:
8T	A:maj	8r	8dd
=9	=9	=9	=9
2.P	B:7	8EL	4g#
.	.	8B	.
.	.	8dJ	8g#
.	.	8EL	4ee
.	.	8B	.
.	.	8dJ	8dd
=10	=10	=10	=10
.	.	.	q8dd
2.P	E:min/5	8EL	8.ccL
.	.	8A	.
.	.	.	16cck
.	.	8cJ	8ccJ
.	.	8EL	8r
.	.	8A	8r
.	.	8cJ	8cc
=11	=11	=11	=11
2.D	A:7	8DL	4f#
.	.	8A	.
.	.	8cJ	8f#
.	.	8DL	4dd
.	.	8A	.
.	.	8cJ	8cc
=12	=12	=12	=12
.	.	.	q8cc
4.D	D:maj/5	8DL	8.bL
.	.	8G	.
.	.	.	16bk
.	.	8BJ	8bJ
4.D	D:maj/5	8DL	8r
.	.	8G	8r
.	.	8BJ	8g
=13	=13	=13	=13
2.D	E:7/5	8EL	4cc#
.	.	8G	.
.	.	8AJ	8cc#
.	.	.	q8dd
.	.	8EL	8cc#L
.	.	8G	8b
.	.	8AJ	8cc#J
=14	=14	=14	=14
4.D	A:maj	4.D; 4.F#; 4.A; 4.d;	4.f#; 4.a; 4.dd;
4D	A:maj	4r	4r
8D	A:maj	8r	8dd
=15	=15	=15	=15
.	.	.	q8dd
4.D	A:7	8DL	4cc
.	.	8F#	.
.	.	8AJ	8cc
.	.	.	q8cc
4.D	D:maj/5	8DL	4b
.	.	8G	.
.	.	8BJ	8b
=16	=16	=16	=16
4.D	A:maj	8DL	[4.a
.	.	8F#	.
.	.	8AJ	.
4D	A:maj	8DL	4a]
.	.	8F#	.
*-	*-	*-	*-
!!!EMD: Edited in humdrumR 0.7.0.3 on 2024-01-19
